res/skins/Deere/icon/ic_unfold_more_48px.svg

<svg xmlns="http://www.w3.org/2000/svg" width="48" height="48" viewBox="0 0 48 48">
    <path d="M0 0h48v48h-48z" fill="none"/>
    <path d="M24 11.66l6.34 6.34 2.83-2.83-9.17-9.17-9.17 9.17 2.83 2.83 6.34-6.34zm0 24.68l-6.34-6.34-2.83 2.83 9.17 9.17 9.17-9.17-2.83-2.83-6.34 6.34z" fill="#848484"/>
</svg>

<?xml version="1.0" encoding="UTF-8" standalone="no"?>
<svg
   xmlns:dc="http://purl.org/dc/elements/1.1/"
   xmlns:cc="http://creativecommons.org/ns#"
   xmlns:rdf="http://www.w3.org/1999/02/22-rdf-syntax-ns#"
   xmlns:svg="http://www.w3.org/2000/svg"
   xmlns="http://www.w3.org/2000/svg"
   xmlns:sodipodi="http://sodipodi.sourceforge.net/DTD/sodipodi-0.dtd"
   xmlns:inkscape="http://www.inkscape.org/namespaces/inkscape"
   width="48"
   height="48"
   viewBox="0 0 48 48"
   id="svg2"
   version="1.1"
   inkscape:version="0.91 r13725"
   sodipodi:docname="ic_unfold_more_48px.svg">
  <metadata
     id="metadata12">
    <rdf:RDF>
      <cc:Work
         rdf:about="">
        <dc:format>image/svg+xml</dc:format>
        <dc:type
           rdf:resource="http://purl.org/dc/dcmitype/StillImage" />
      </cc:Work>
    </rdf:RDF>
  </metadata>
  <defs
     id="defs10" />
  <sodipodi:namedview
     pagecolor="#ffffff"
     bordercolor="#666666"
     borderopacity="1"
     objecttolerance="10"
     gridtolerance="10"
     guidetolerance="10"
     inkscape:pageopacity="0"
     inkscape:pageshadow="2"
     inkscape:window-width="1366"
     inkscape:window-height="702"
     id="namedview8"
     showgrid="false"
     inkscape:zoom="4.9166667"
     inkscape:cx="-4.9830508"
     inkscape:cy="24.813559"
     inkscape:window-x="0"
     inkscape:window-y="27"
     inkscape:window-maximized="1"
     inkscape:current-layer="svg2" />
  <path
     d="M0 0h48v48h-48z"
     fill="none"
     id="path4" />
  <path
     d="M 24,11.66 30.34,18 33.17,15.17 24,6 14.83,15.17 17.66,18 24,11.66 Z M 24,36.34 17.66,30 14.83,32.83 24,42 33.17,32.83 30.34,30 24,36.34 Z"
     id="path6"
     inkscape:connector-curvature="0"
     style="fill:#d2d2d2;fill-opacity:1" />
</svg>
